/* XPM */
static char * DRC1200_xpm[] = {
"64 64 211 2",
"  	c None",
". 	c #A8A898",
"+ 	c #707058",
"@ 	c #787860",
"# 	c #808068",
"$ 	c #909078",
"% 	c #989880",
"& 	c #706858",
"* 	c #383830",
"= 	c #404038",
"- 	c #585848",
"; 	c #A0A088",
"> 	c #403828",
", 	c #484030",
"' 	c #383828",
") 	c #888878",
"! 	c #484840",
"~ 	c #202018",
"{ 	c #303028",
"] 	c #888870",
"^ 	c #282818",
"/ 	c #282820",
"( 	c #101008",
"_ 	c #706860",
": 	c #000000",
"< 	c #181810",
"[ 	c #080808",
"} 	c #A8A8A0",
"| 	c #585850",
"1 	c #B0B098",
"2 	c #B8B0A0",
"3 	c #B8B8A0",
"4 	c #B8B8A8",
"5 	c #605850",
"6 	c #C0C0A8",
"7 	c #A8A890",
"8 	c #989888",
"9 	c #787868",
"0 	c #685038",
"a 	c #282018",
"b 	c #989878",
"c 	c #787068",
"d 	c #585040",
"e 	c #888868",
"f 	c #606040",
"g 	c #101810",
"h 	c #686050",
"i 	c #605848",
"j 	c #503018",
"k 	c #382818",
"l 	c #A09888",
"m 	c #908880",
"n 	c #B0A898",
"o 	c #606048",
"p 	c #302828",
"q 	c #484038",
"r 	c #A0A080",
"s 	c #808060",
"t 	c #484838",
"u 	c #302820",
"v 	c #686850",
"w 	c #504840",
"x 	c #382010",
"y 	c #282010",
"z 	c #787060",
"A 	c #989088",
"B 	c #A8A090",
"C 	c #A8A088",
"D 	c #686858",
"E 	c #383028",
"F 	c #301808",
"G 	c #706850",
"H 	c #383020",
"I 	c #707068",
"J 	c #C0C0A0",
"K 	c #A8A888",
"L 	c #484830",
"M 	c #504838",
"N 	c #281808",
"O 	c #807860",
"P 	c #807868",
"Q 	c #C0B8A0",
"R 	c #B0A890",
"S 	c #505038",
"T 	c #585048",
"U 	c #302818",
"V 	c #787070",
"W 	c #989080",
"X 	c #888070",
"Y 	c #B8B898",
"Z 	c #908870",
"` 	c #A09890",
" .	c #989078",
"..	c #686048",
"+.	c #C8C8B0",
"@.	c #B8B098",
"#.	c #C8C0A8",
"$.	c #585840",
"%.	c #403830",
"&.	c #201810",
"*.	c #503828",
"=.	c #505048",
"-.	c #202020",
";.	c #402818",
">.	c #181818",
",.	c #282828",
"'.	c #383030",
").	c #281810",
"!.	c #201818",
"~.	c #080000",
"{.	c #080800",
"].	c #100808",
"^.	c #181008",
"/.	c #201808",
"(.	c #302018",
"_.	c #301810",
":.	c #402810",
"<.	c #403018",
"[.	c #483018",
"}.	c #402008",
"|.	c #604828",
"1.	c #705028",
"2.	c #684018",
"3.	c #503818",
"4.	c #806040",
"5.	c #906830",
"6.	c #A07840",
"7.	c #905820",
"8.	c #A88050",
"9.	c #A87838",
"0.	c #B88840",
"a.	c #B88038",
"b.	c #C08838",
"c.	c #D09848",
"d.	c #E8B058",
"e.	c #C88830",
"f.	c #A06828",
"g.	c #E8B860",
"h.	c #F0B858",
"i.	c #E8A040",
"j.	c #B87828",
"k.	c #A87030",
"l.	c #F8C870",
"m.	c #FFC860",
"n.	c #F0C068",
"o.	c #FFD068",
"p.	c #FFD870",
"q.	c #A06020",
"r.	c #FFB840",
"s.	c #784818",
"t.	c #D08830",
"u.	c #E8A840",
"v.	c #E09838",
"w.	c #D08828",
"x.	c #B88028",
"y.	c #805018",
"z.	c #D8A048",
"A.	c #D09840",
"B.	c #D09038",
"C.	c #C89040",
"D.	c #C08830",
"E.	c #503820",
"F.	c #201008",
"G.	c #482810",
"H.	c #281008",
"I.	c #382008",
"J.	c #180808",
"K.	c #180800",
"L.	c #181010",
"M.	c #000008",
"N.	c #100810",
"O.	c #080008",
"P.	c #201018",
"Q.	c #584028",
"R.	c #604020",
"S.	c #585038",
"T.	c #282020",
"U.	c #E8C070",
"V.	c #E8A848",
"W.	c #504830",
"X.	c #C89038",
"Y.	c #303018",
"Z.	c #302008",
"`.	c #181808",
" +	c #787058",
".+	c #888068",
"++	c #908878",
"@+	c #C0B898",
"#+	c #C8C0A0",
"$+	c #C8C8A8",
"%+	c #D0C8A8",
"&+	c #D0C8B0",
"*+	c #A09880",
"=+	c #D8D8B8",
"-+	c #D8D0B8",
";+	c #D8D8C0",
">+	c #E0D8C0",
",+	c #E0D8C8",
"'+	c #E0E0C8",
")+	c #D8D8C8",
"!+	c #B8B090",
"~+	c #D0C8B8",
"{+	c #D0D0B8",
"]+	c #D8D0C0",
"^+	c #C8C8B8",
"/+	c #A8A080",
"(+	c #B8A890",
"_+	c #C8C0B0",
":+	c #606058",
"<+	c #808078",
"[+	c #C0B8A8",
"                                                                                                                                ",
"                                                                                                                                ",
"                                                                                  . + @ #                                       ",
"                                          $ %                                     & * = - ;                                     ",
"                                      $ > , ' )                                   ! ~ { ~ .                                     ",
"                                      ] ^ / ( _                                   { : < [ }                                     ",
"                                      ; ( : : |       1 1 2 1 1 1 2 2 3 4 3       5 / < [ ;   6     7                           ",
"                                        ~ : : * 8   7 7 7 7 1 3 3 3 3 3 1 ; % 9 ' @ 0 a : - b 7 3 # c }                         ",
"                                  $ 7 $ { : : ( d # e f ' g ~ $ b ] # # @ @ - h ~ i j k * - ^ + $ l m                           ",
"                                + n $ o ' p q d + r s t u : ( - v v v v & v / w ^ ' x f $ o y h z 1 A 8                         ",
"                              @ B 7 C f o $ $ @ % b # , ' : ( - v h h h D v ' # { E F G r - H , - % I D                         ",
"                            @ n J 1 7 # @ K % # 1 3 r L ' : ( d v o o v + v ' # M > N O 1 # v v v @ D ] #                       ",
"                          P 2 Q 3 3 Q K s 7 C ] 1 6 R S > ' u , i o i T i 5 5 P , u U O 7 7 V T M M W 6 z #                     ",
"                        X 3 Q 3 Q 6 6 Y ; 3 6 ; 7 6 3 X ] W X & z 9 9 @ ] X Z + { / h C 6 3 2 n ` ` ; 7 z o                     ",
"                      X 3 6 3 1 1 R K ; b $ $ s $ 6 C e Z $  .b r r b b b $ Z r ; r K C ] e e e e e # @ % D #                   ",
"                    X 6 6 J 6 s f o o ..v v v + R +.J 1 @.1 1 1 1 1 1 1 7 K 7 7 ; r % r b $ $ ] ] # # @ $ - d                   ",
"                  $ #.J 3 3 3 r ] ] ] # 9 @ z & s s @ + v o o - $.S t t , , %.' ' H H ' ' H u u / / u { * { { +                 ",
"                , h # @ + v h - t t ! %.{ / * ~ / %.%./ &.< < < ~ ^ ^ / / u E *.k { t w d , = %.t d * %.=.=.{ t                 ",
"              o = ! =.T - T - - T =.T - t %.w * = - - * / -.~ -./ / u u u { H *.;.> $.M w , , %., , %.* %.w * / v               ",
"            S { q = w =.T =.=.=.! ! ! t q %.= ! w d d t = * * * %.= , t t M M w M M t M M t q , t t w =.T - - { %.]             ",
"          f w =.T w t t q , , %.%.%.%.%.%.%.%.= %.%.%.= = = q q q q , %.%.%.> > > > > E H H H u U ^ a ^ ^ / ' ' %.&             ",
"        o q %.{ / ~ ~ &.< < < >.~ ~ ~ ~ ~ -./ ,.,.,.,.{ { { { '.E p u / a &.).).&.).&.&.&.&.&.&.&.&.&.!.a / u ~ =.z             ",
"      > ( [ : : ~.{.].].^.^.^.&.&./.).a (.k )._.:.<.[.j }.;.|.|.1.1.2.3.4.4.4.5.5.2.5.6.6.6.6.7.1.8.8.8.8.9.1.{ T z             ",
"      v ^.[ 2.9.9.0.a.2.b.c.d.d.e.f.d.g.g.h.e.f.i.i.i.i.j.k.l.l.l.m.i.f.n.o.p.p.m.q.d.m.m.m.r.j.9.o.o.m.m.r.7.{ T               ",
"        u ].s.r.r.r.r.q.t.r.u.u.v.7.i.u.v.v.w.7.w.e.x.w.q.y.z.A.B.B.j.y.B.b.C.A.B.s.x.x.a.x.D.y.7.D.a.b.x.j.E.{ 5               ",
"        $.< F.s.s.2.2.G.G.3.0 j :.H.I.x *.N H.J.F.F.E K.K.K.K.).> F.F.N H.).M N N N N H.H ).F.a ).F.u %.L.~ / { &               ",
"          a ].: : M.: : : : L.N.O.O.[ N.P.L.L.^.).(.k (.k _.;.E.E.*.E.:.E.Q.Q.|.R.G.|.|.0 0 0 [.0 0 0 S.0 *.T.%.9               ",
"          H ( x 5.5.6.9.s.8.8.c.c.6.5.d.d.g.d.5.c.U.U.U.n.k.d.U.U.U.V.f.d.h.h.h.v.7.g.n.n.h.r.7.g.l.l.l.o.k.a ! )               ",
"          W.< x i.r.i.r.q.D.h.u.r.i.7.u.i.v.u.7.0.g.z.z.V.f.X.A.X.B.B.7.e.D.b.e.j.s.A.X.b.B.e.s.A.C.c.A.z.s./ d                 ",
"            Y.^.G.2.R.G.x I.j Q.3.:.N }.;.> I.N F I.*.<.Z.F F x M x x _.x k d k y y x k 5 k y a (.(.T H (.a u i                 ",
"            > &.: : [ M.{.{.: ( [ {.{.{.].( ].( ( ].^.^.^.`.< &.&.&.&.&.&.&.a a a a ~ ~ ~ ~ ~ ~ ~ &.< ~ ~ ~ u z                 ",
"            S.a [ {.].].].].( ].].( ( ( ( ( ( ^.^.^.^.&.&.&.&.y &.).y a a a a a a a a a a a / / / a a a / ~ { ]                 ",
"              H ( ].( ( ( ( ( ( ( ( ( ( ^.^.^.^.^.`.&.&.&.y a a a a a a a a a a a a a a a / / p ,./ / / / -.t %                 ",
"              M ~ {.{.{.].( ( ( ( ( ( ( ( ( ( ^.^.^.&.&.&.&.a a a &.y a a a ~ a a ~ ~ ~ ~ ~ ~ a ~ ~ ~ ~ -./ -                   ",
"                { - + +  +z @ @ @ @ @ @ P P # # .+X X X ] P & ++] ] ] Z ++] ] ] ] ] ] ] ] ] X X # # # # 9 ! h                   ",
"                ' # J Y @+@+@+Q J J J J #.#+#.#.$+%+%+%+&+Q *+=+&+-+-+-+-+-+-+-+=+;+;+;+>+>+>+>+>+,+'+'+)+5 +                   ",
"                S M R R R R !+!+@.@.@.@.@.@+Q Q J !+*+*+!+Q  .#.C C @.&+&++.&+&+~+~+~+~+~+{+{+{+{+{+{+]+^+w @                   ",
"                  > ++@.R 1 @.@.@.@.@.@.@+@+Q Q J @+/+C (+#+*+#.(+@.@.&+&+&+&+&+&+~+{+{+{+{+{+{+{+{+{+>+. d e                   ",
"                  , & @.R @.@.@.@.@.@.Y Q Q Q Q J #.*+ +*+&+*+#.C O C {+&+&+&+~+&+{+{+{+{+{+{+{+{+{+{+'+m d                     ",
"                  f S R @.@.@.@.@.Y @+@+Q Q Q J J #.J Q #.&+*+Q +.#.&+&+&+~+~+~+{+{+{+{+{+{+{+{+{+{+]+)+I o                     ",
"                    L  .@.@.@.@.@.Y @+@+Q Q Q J 6 #.#.#.#.&+C Q &+&+&+&+~+~+{+{+{+{+{+{+{+{+]+{+{+{+]+{+- @                     ",
"                    $.& Y @.@.@.@.Q Q Q Q Q Q J #.#.J #.#.&+C Q &+&+&+~+~+~+{+{+{+{+{+{+{+{+{+]+{+{+;+_+- #                     ",
"                      M K Y @.@.Y Q Q Q Q Q Q J J #.#.#.#.&+1 Q &+&+~+~+~+{+{+{+{+{+{+{+{+{+{+]+]+]+;+1 :+                      ",
"                      S.++@+@.@.@+@+Q Q Q Q J J J #.#.#.#.$+Q @.{+&+~+~+{+{+{+{+{+{+{+{+]+]+]+]+]+]+'+B h                       ",
"                      G & @+@.@.@+@+Q Q Q J J #.#.#.#.#.#.$+#.@.{+&+~+{+{+{+]+]+]+{+{+]+]+]+]+]+]+]+'+W v                       ",
"                        i 7 Q @.Y Q Q Q J Q C C @.#.#.#.#.&+#.@.{+~+~+{+{+{+_++.+.{+{+]+]+]+]+]+]+;+)+9 z                       ",
"                        ..X J Q Q Q Q Q Q Q *+*+/+#.#.#.#.&+#.@.{+~+~+{+{+{+@.3 3 {+{+]+]+]+]+]+]+;+]+:+#                       ",
"                        e & Q Q Q Q Q Q Q J C *+r #.#.#.#.$+#.3 {+~+{+{+{+~+@.3 @.{+{+{+]+]+]+]+]+'+4 :+                        ",
"                          G R Q Q Q Q Q Q #.R b *+Q #.#.+.+.#.@.~+{+{+{+{+{+1 @.@.{+{+{+]+]+]+]+]+'+` v                         ",
"                          e X J @+Q Q Q Q J Q r r !++.#.+.+.&+1 +.{+{+{+{+{+@.3 3 {+{+{+]+]+]+]+;+'+m &                         ",
"                            & @.Q Q Q Q Q J J C r R #.#.+.+.&+R #.{+{+{+{+{+@.3 3 {+{+{+]+]+]+]+;+)+<+@                         ",
"                            @ W J Q Q Q Q J #.K r C #.#.#.+.&+7 #.{+~+{+{+~+@.3 3 {+]+{+]+]+]+]+;+)+c #                         ",
"                            r # Q Q Q Q Q Q #.R *+r J #.#.+.&+n 6 ~+~+{+{+~+3 3 J {+{+{+{+]+]+]+)+~+&                           ",
"                              # @.Q Q Q Q Q #.@.r r @.+.#.+.&+3 Q ~+~+~+{+~+3 3 J {+{+{+{+]+]+]+'+} &                           ",
"                              r *+J Q Q Q Q 6 Q C r R +.#.+.&+6 @.{+~+~+{+^+2 3 6 {+{+{+{+{+]+]+'+A z                           ",
"                                # Q Q Q Q Q Q 6 J J J #.#.+.+.#.1 {+~+~+{+~+4 3 6 {+{+{+{+{+]+;+)+<+#                           ",
"                                ] 7 Q Q Q Q Q J 6 #.#.#.#._++.#.1 {++.^+~+{+{+{+{+{+{+{+{+{+{+;+{+_                             ",
"                                R  .J Q Q Q Q J J 6 6 #._+_++.#.1 +.+.+.+.~+{+{+{+{+{+{+{+{+{+;+6 _                             ",
"                                  $ @.[+#.#.#.#.#.#.$++.&+~+~+&+3 +.+.+.+.^+^+~+~+{+~+~+{+{+{+;+} z                             ",
"                                    Z z 9 # W W l l ; B 7 n 2 3 n 6 +.+.+.{+{+{+]+;+{+{+]+{+{+;+` 9                             ",
"                                      # - -                     9 z ) m ) ) W ` ` B B . 2 6 +.{+m                               ",
"                                                                                        t $.<+                                  ",
"                                                                                        8 #                                     ",
"                                                                                                                                "};
